src/assets/icons/detail.svg

<?xml version="1.0" encoding="utf-8"?>

<!DOCTYPE svg PUBLIC "-//W3C//DTD SVG 1.0//EN" "http://www.w3.org/TR/2001/REC-SVG-20010904/DTD/svg10.dtd">
<!-- Uploaded to: SVG Repo, www.svgrepo.com, Generator: SVG Repo Mixer Tools -->
<svg version="1.0" id="Layer_1" xmlns="http://www.w3.org/2000/svg" xmlns:xlink="http://www.w3.org/1999/xlink" 
	 width="800px" height="800px" viewBox="0 0 64 64" enable-background="new 0 0 64 64" xml:space="preserve">
<g>
	<path fill="#231F20" d="M56,0H8C5.789,0,4,1.789,4,4v56c0,2.211,1.789,4,4,4h48c2.211,0,4-1.789,4-4V4C60,1.789,58.211,0,56,0z
		 M58,60c0,1.104-0.896,2-2,2H8c-1.104,0-2-0.896-2-2V4c0-1.104,0.896-2,2-2h48c1.104,0,2,0.896,2,2V60z"/>
	<path fill="#231F20" d="M49,25H15c-0.553,0-1,0.447-1,1s0.447,1,1,1h34c0.553,0,1-0.447,1-1S49.553,25,49,25z"/>
	<path fill="#231F20" d="M49,19H15c-0.553,0-1,0.447-1,1s0.447,1,1,1h34c0.553,0,1-0.447,1-1S49.553,19,49,19z"/>
	<path fill="#231F20" d="M49,37H15c-0.553,0-1,0.447-1,1s0.447,1,1,1h34c0.553,0,1-0.447,1-1S49.553,37,49,37z"/>
	<path fill="#231F20" d="M49,43H15c-0.553,0-1,0.447-1,1s0.447,1,1,1h34c0.553,0,1-0.447,1-1S49.553,43,49,43z"/>
	<path fill="#231F20" d="M49,49H15c-0.553,0-1,0.447-1,1s0.447,1,1,1h34c0.553,0,1-0.447,1-1S49.553,49,49,49z"/>
	<path fill="#231F20" d="M49,31H15c-0.553,0-1,0.447-1,1s0.447,1,1,1h34c0.553,0,1-0.447,1-1S49.553,31,49,31z"/>
	<path fill="#231F20" d="M15,15h16c0.553,0,1-0.447,1-1s-0.447-1-1-1H15c-0.553,0-1,0.447-1,1S14.447,15,15,15z"/>
</g>
</svg>

<?xml version="1.0" encoding="UTF-8" standalone="no" ?>
<!DOCTYPE svg PUBLIC "-//W3C//DTD SVG 1.1//EN" "http://www.w3.org/Graphics/SVG/1.1/DTD/svg11.dtd">
<svg xmlns="http://www.w3.org/2000/svg" xmlns:xlink="http://www.w3.org/1999/xlink" version="1.1" width="1080" height="1080" viewBox="0 0 1080 1080" xml:space="preserve">
<desc>Created with Fabric.js 5.2.4</desc>
<defs>
</defs>
<g transform="matrix(1 0 0 1 540 540)" id="50c8e08f-3904-4cb4-8e96-d980067b13df"  >
<rect style="stroke: none; stroke-width: 1; stroke-dasharray: none; stroke-linecap: butt; stroke-dashoffset: 0; stroke-linejoin: miter; stroke-miterlimit: 4; fill: rgb(255,255,255); fill-rule: nonzero; opacity: 1; visibility: hidden;" vector-effect="non-scaling-stroke"  x="-540" y="-540" rx="0" ry="0" width="1080" height="1080" />
</g>
<g transform="matrix(1 0 0 1 540 540)" id="3ec69aad-f2cf-48a0-bae4-a8b7cd871e34"  >
</g>
<g transform="matrix(1 0 0 1 540 540)"  >
<g style="" vector-effect="non-scaling-stroke"   >
		<g transform="matrix(12.5 0 0 12.5 0 0)"  >
<path style="stroke: none; stroke-width: 1; stroke-dasharray: none; stroke-linecap: butt; stroke-dashoffset: 0; stroke-linejoin: miter; stroke-miterlimit: 4; fill: rgb(255,255,255); fill-rule: nonzero; opacity: 1;" vector-effect="non-scaling-stroke"  transform=" translate(-32, -32)" d="M 56 0 L 8 0 C 5.789 0 4 1.789 4 4 L 4 60 C 4 62.211 5.789 64 8 64 L 56 64 C 58.211 64 60 62.211 60 60 L 60 4 C 60 1.789 58.211 0 56 0 z M 58 60 C 58 61.104 57.104 62 56 62 L 8 62 C 6.896 62 6 61.104 6 60 L 6 4 C 6 2.896 6.896 2 8 2 L 56 2 C 57.104 2 58 2.896 58 4 L 58 60 z" stroke-linecap="round" />
</g>
		<g transform="matrix(12.5 0 0 12.5 0 -75)"  >
<path style="stroke: none; stroke-width: 1; stroke-dasharray: none; stroke-linecap: butt; stroke-dashoffset: 0; stroke-linejoin: miter; stroke-miterlimit: 4; fill: rgb(255,255,255); fill-rule: nonzero; opacity: 1;" vector-effect="non-scaling-stroke"  transform=" translate(-32, -26)" d="M 49 25 L 15 25 C 14.447 25 14 25.447 14 26 C 14 26.553 14.447 27 15 27 L 49 27 C 49.553 27 50 26.553 50 26 C 50 25.447 49.553 25 49 25 z" stroke-linecap="round" />
</g>
		<g transform="matrix(12.5 0 0 12.5 0 -150)"  >
<path style="stroke: none; stroke-width: 1; stroke-dasharray: none; stroke-linecap: butt; stroke-dashoffset: 0; stroke-linejoin: miter; stroke-miterlimit: 4; fill: rgb(255,255,255); fill-rule: nonzero; opacity: 1;" vector-effect="non-scaling-stroke"  transform=" translate(-32, -20)" d="M 49 19 L 15 19 C 14.447 19 14 19.447 14 20 C 14 20.553 14.447 21 15 21 L 49 21 C 49.553 21 50 20.553 50 20 C 50 19.447 49.553 19 49 19 z" stroke-linecap="round" />
</g>
		<g transform="matrix(12.5 0 0 12.5 0 75)"  >
<path style="stroke: none; stroke-width: 1; stroke-dasharray: none; stroke-linecap: butt; stroke-dashoffset: 0; stroke-linejoin: miter; stroke-miterlimit: 4; fill: rgb(255,255,255); fill-rule: nonzero; opacity: 1;" vector-effect="non-scaling-stroke"  transform=" translate(-32, -38)" d="M 49 37 L 15 37 C 14.447 37 14 37.447 14 38 C 14 38.553 14.447 39 15 39 L 49 39 C 49.553 39 50 38.553 50 38 C 50 37.447 49.553 37 49 37 z" stroke-linecap="round" />
</g>
		<g transform="matrix(12.5 0 0 12.5 0 150)"  >
<path style="stroke: none; stroke-width: 1; stroke-dasharray: none; stroke-linecap: butt; stroke-dashoffset: 0; stroke-linejoin: miter; stroke-miterlimit: 4; fill: rgb(255,255,255); fill-rule: nonzero; opacity: 1;" vector-effect="non-scaling-stroke"  transform=" translate(-32, -44)" d="M 49 43 L 15 43 C 14.447 43 14 43.447 14 44 C 14 44.553 14.447 45 15 45 L 49 45 C 49.553 45 50 44.553 50 44 C 50 43.447 49.553 43 49 43 z" stroke-linecap="round" />
</g>
		<g transform="matrix(12.5 0 0 12.5 0 225)"  >
<path style="stroke: none; stroke-width: 1; stroke-dasharray: none; stroke-linecap: butt; stroke-dashoffset: 0; stroke-linejoin: miter; stroke-miterlimit: 4; fill: rgb(255,255,255); fill-rule: nonzero; opacity: 1;" vector-effect="non-scaling-stroke"  transform=" translate(-32, -50)" d="M 49 49 L 15 49 C 14.447 49 14 49.447 14 50 C 14 50.553 14.447 51 15 51 L 49 51 C 49.553 51 50 50.553 50 50 C 50 49.447 49.553 49 49 49 z" stroke-linecap="round" />
</g>
		<g transform="matrix(12.5 0 0 12.5 0 0)"  >
<path style="stroke: none; stroke-width: 1; stroke-dasharray: none; stroke-linecap: butt; stroke-dashoffset: 0; stroke-linejoin: miter; stroke-miterlimit: 4; fill: rgb(255,255,255); fill-rule: nonzero; opacity: 1;" vector-effect="non-scaling-stroke"  transform=" translate(-32, -32)" d="M 49 31 L 15 31 C 14.447 31 14 31.447 14 32 C 14 32.553 14.447 33 15 33 L 49 33 C 49.553 33 50 32.553 50 32 C 50 31.447000000000003 49.553 31 49 31 z" stroke-linecap="round" />
</g>
		<g transform="matrix(12.5 0 0 12.5 -112.5 -225)"  >
<path style="stroke: none; stroke-width: 1; stroke-dasharray: none; stroke-linecap: butt; stroke-dashoffset: 0; stroke-linejoin: miter; stroke-miterlimit: 4; fill: rgb(255,255,255); fill-rule: nonzero; opacity: 1;" vector-effect="non-scaling-stroke"  transform=" translate(-23, -14)" d="M 15 15 L 31 15 C 31.553 15 32 14.553 32 14 C 32 13.447 31.553 13 31 13 L 15 13 C 14.447 13 14 13.447 14 14 C 14 14.553 14.447 15 15 15 z" stroke-linecap="round" />
</g>
</g>
</g>
</svg>
